images/social-link/vk.svg

<svg width="36" height="36" viewBox="0 0 36 36" fill="none" xmlns="http://www.w3.org/2000/svg">
<g id="Sosial / icon / vk">
<path id="Shape 2 copy 4" fill-rule="evenodd" clip-rule="evenodd" d="M18.1332 1.2141C27.5346 1.2141 35.1559 8.66232 35.1559 17.8502C35.1559 27.0377 27.5346 34.4859 18.1332 34.4859C8.73176 34.4859 1.11041 27.0377 1.11041 17.8502C1.11041 8.66232 8.73176 1.2141 18.1332 1.2141Z" fill="#293449"/>
<g id="icon / vk">
<g id="icon-vk">
<path id="Shape" d="M19.7608 20.6746C20.3982 20.4685 21.2144 22.0348 22.0832 22.6343C22.7353 23.0884 23.2348 22.9904 23.2348 22.9904L25.5505 22.957C25.5505 22.957 26.7608 22.8823 26.1887 21.9208C26.1413 21.8408 25.8533 21.208 24.465 19.9058C23.0134 18.5435 23.2101 18.7642 24.9578 16.4091C26.0226 14.9735 26.4487 14.0967 26.3153 13.7233C26.1873 13.3639 25.4052 13.4572 25.4052 13.4572L22.796 13.4752C22.542 13.4759 22.3266 13.5546 22.2286 13.8186C22.2266 13.8213 21.8145 14.9295 21.265 15.8717C20.1042 17.8647 19.6407 17.9707 19.4487 17.846C19.0079 17.5573 19.1193 16.6878 19.1193 16.0697C19.1193 14.138 19.4074 13.3325 18.5552 13.1245C18.2705 13.0551 18.0624 13.0098 17.3363 13.0031C16.4081 12.9891 15.62 13.0031 15.1732 13.2225C14.8765 13.3712 14.6491 13.6972 14.7871 13.7159C14.9605 13.7393 15.3493 13.8226 15.5573 14.1067C15.8247 14.4747 15.8167 15.2996 15.8167 15.2996C15.8167 15.2996 15.9694 17.574 15.4566 17.856C15.1045 18.0494 14.6231 17.6547 13.5876 15.845C13.0588 14.9195 12.6594 13.8966 12.6594 13.8966C12.6594 13.8966 12.5821 13.7066 12.442 13.6026C12.2753 13.4792 12.042 13.4399 12.042 13.4399L9.56548 13.4559C9.56548 13.4559 9.19341 13.4665 9.05672 13.6306C8.93536 13.7759 9.04672 14.076 9.04672 14.076C9.04672 14.076 10.9864 18.6642 13.1828 20.9753C15.1966 23.097 17.485 22.9563 17.485 22.9563H18.5219C18.5219 22.9563 18.8346 22.9203 18.9946 22.7483C19.144 22.5883 19.1373 22.2876 19.1373 22.2876C19.1373 22.2876 19.1166 20.8813 19.7608 20.6746Z" fill="white"/>
</g>
</g>
</g>
</svg>

<svg width="36" height="36" viewBox="0 0 36 36" fill="none" xmlns="http://www.w3.org/2000/svg"><path fill-rule="evenodd" clip-rule="evenodd" d="M18.13 1.21c9.4 0 17.03 7.45 17.03 16.64 0 9.19-7.63 16.64-17.03 16.64-9.4 0-17.02-7.45-17.02-16.64 0-9.19 7.62-16.64 17.02-16.64Z" fill="#293449"/><path d="M19.76 20.67c.64-.2 1.45 1.36 2.32 1.96.66.46 1.15.36 1.15.36l2.32-.03s1.21-.08.64-1.04c-.05-.08-.34-.71-1.73-2.01-1.45-1.37-1.25-1.15.5-3.5 1.06-1.44 1.49-2.31 1.36-2.69-.13-.36-.91-.26-.91-.26l-2.61.02c-.26 0-.47.07-.57.34 0 0-.42 1.11-.96 2.05-1.17 2-1.63 2.1-1.82 1.98-.44-.3-.33-1.16-.33-1.78 0-1.93.29-2.74-.56-2.95a4.4 4.4 0 0 0-1.22-.12c-.93-.01-1.72 0-2.17.22-.3.15-.52.48-.38.5.17.02.56.1.77.39.26.36.26 1.19.26 1.19s.15 2.27-.36 2.56c-.36.19-.84-.2-1.87-2.01-.53-.93-.93-1.95-.93-1.95s-.08-.2-.22-.3c-.16-.12-.4-.16-.4-.16l-2.47.02s-.38 0-.51.17c-.12.15-.01.45-.01.45s1.94 4.58 4.13 6.9c2.02 2.12 4.3 1.98 4.3 1.98h1.04s.31-.04.47-.21c.15-.16.15-.46.15-.46s-.02-1.4.62-1.62Z" fill="#fff"/></svg>
